X:27
T:Oh, Aye, Rio
M:6/8
L:1/8
Q:1/4=3D100
K:E
B,|\
E2E GGG|FEF E3 |B3  e3 |c3  B2 |
c2c BBB|AAA G3 |FFF FFE|D2C B,B,B,|
E3  F3 |G3  A2A|G2G FEF|E3  BCD|
E3  F3 |G3  A2A|G2G FEF|E3- E2 ||
